X:1
T:Within a Mile o' Edinburgh Toon
T:Within a Mile o' Edinburgh Toon
T:James Hook (1746-1827)
C:James Hook (1746-1827)
L:1/8
M:4/4
K:A
V:1 treble 
V:1
 c>d |"A" e<c B>c"D" A2 c>A |"D" F<A"A" E>C E2 A>B |"A" c<e"D" f>a"A" e<c"E7" BA | %4
"A" [Ec]2"E7" [EB]2 z2 || c>d |"A" e<c B>c"D" A2 c>A |"D" F<A"A" E>C E2 A>B | %8
"A" c<e"D" f>a"A" e<c"E7" B>c |"A" [EA]6 |] z2 |"A" A>B c>d ec a2 | A>B c>d ec a>A | %13
 A>B A>F ECE>A | c>A c<e"D" f2 a || g/f/ |"A" e<c c<A"D" F<A"A" E<A | c<e"E" B>c"D" A2 ag/f/ | %18
"A" e<c c<A"D" F<A"A" E>A | c<e"E7" B>c"A" [CA]2 |] %20

